assets/search.svg

<svg xmlns="http://www.w3.org/2000/svg" fill="none" viewBox="0 0 29 28">
  <path fill="#2A2238" d="M20.5522 18.1006c1.6947-2.3125 2.4537-5.1797 2.1252-8.0278-.3284-2.84813-1.7202-5.46722-3.8968-7.33328C16.604.87346 13.8031-.101946 10.9382.00844302 8.07327.118832 5.3557 1.30688 3.32913 3.33489 1.30257 5.3629.116472 8.08133.00813227 10.9463-.100207 13.8113.877203 16.6115 2.74482 18.7868c1.86761 2.1752 4.4877 3.5651 7.33608 3.8916 2.8484.3264 5.715-.4347 8.0263-2.131h-.0018c.0525.07.1086.1365.1716.2012l6.7382 6.7382c.3281.3284.7733.513 1.2376.5132.4643.0002.9096-.1841 1.238-.5123.3284-.3282.513-.7733.5131-1.2376.0002-.4643-.1841-.9096-.5122-1.238l-6.7382-6.7382c-.0626-.0633-.1299-.1219-.2013-.175v.0017Zm.4515-6.7277c0 1.2641-.2489 2.5159-.7327 3.6837-.4837 1.1679-1.1928 2.2291-2.0866 3.1229-.8939.8939-1.9551 1.6029-3.1229 2.0867-1.1679.4837-2.4197.7327-3.6838.7327s-2.51578-.249-3.68366-.7327c-1.16788-.4838-2.22904-1.1928-3.1229-2.0867-.89386-.8938-1.6029-1.955-2.08665-3.1229-.48375-1.1678-.73274-2.4196-.73274-3.6837 0-2.55294 1.01417-5.00135 2.81939-6.80657C6.37636 2.7611 8.82477 1.74694 11.3777 1.74694c2.553 0 5.0014 1.01416 6.8067 2.81939 1.8052 1.80522 2.8193 4.25363 2.8193 6.80657Z"/>
</svg>

<svg width="29" height="28" viewBox="0 0 29 28" fill="none" xmlns="http://www.w3.org/2000/svg">
<path d="M20.5522 18.1006C22.2469 15.7881 23.0059 12.9209 22.6774 10.0728C22.349 7.22467 20.9572 4.60558 18.7806 2.73952C16.604 0.87346 13.8031 -0.101946 10.9382 0.00844302C8.07327 0.118832 5.3557 1.30688 3.32913 3.33489C1.30257 5.3629 0.116472 8.08133 0.00813227 10.9463C-0.100207 13.8113 0.877203 16.6115 2.74482 18.7868C4.61243 20.962 7.23252 22.3519 10.0809 22.6784C12.9293 23.0048 15.7959 22.2437 18.1072 20.5474H18.1054C18.1579 20.6174 18.214 20.6839 18.277 20.7486L25.0152 27.4868C25.3433 27.8152 25.7885 27.9998 26.2528 28C26.7171 28.0002 27.1624 27.8159 27.4908 27.4877C27.8192 27.1595 28.0038 26.7144 28.0039 26.2501C28.0041 25.7858 27.8198 25.3405 27.4917 25.0121L20.7535 18.2739C20.6909 18.2106 20.6236 18.152 20.5522 18.0989V18.1006ZM21.0037 11.3729C21.0037 12.637 20.7548 13.8888 20.271 15.0566C19.7873 16.2245 19.0782 17.2857 18.1844 18.1795C17.2905 19.0734 16.2293 19.7824 15.0615 20.2662C13.8936 20.7499 12.6418 20.9989 11.3777 20.9989C10.1136 20.9989 8.86192 20.7499 7.69404 20.2662C6.52616 19.7824 5.465 19.0734 4.57114 18.1795C3.67728 17.2857 2.96824 16.2245 2.48449 15.0566C2.00074 13.8888 1.75175 12.637 1.75175 11.3729C1.75175 8.81996 2.76592 6.37155 4.57114 4.56633C6.37636 2.7611 8.82477 1.74694 11.3777 1.74694C13.9307 1.74694 16.3791 2.7611 18.1844 4.56633C19.9896 6.37155 21.0037 8.81996 21.0037 11.3729V11.3729Z" fill="#2A2238"/>
</svg>
